static/assets/head_icons_png/man/bizi/1004533.svg

<svg xmlns="http://www.w3.org/2000/svg" width="11" height="16"><g transform="translate(0 -1.1)"><path d="M2 14.95l.95.75.05.05-.1-.05-.35-.2-.2-.05-.45-.1q-.5.1-1.2-.4v-.1q.25-.35 1 0l.3.1" fill="#823909"/><radialGradient id="a" gradientUnits="userSpaceOnUse" gradientTransform="rotate(3.397 -217.916 68.07) scale(.00107)" spreadMethod="pad" cx="0" cy="0" r="819.2" fx="0" fy="0"><stop offset=".314" stop-color="#fff" stop-opacity=".431"/><stop offset="1" stop-color="#fff" stop-opacity="0"/></radialGradient><path d="M4.1 11.95l.2.65-.3.6-.6.25-.6-.35q-.25-.25-.2-.6 0-.35.25-.6t.65-.2q.35 0 .6.25" fill="url(#a)"/><radialGradient id="b" gradientUnits="userSpaceOnUse" gradientTransform="matrix(.00139 .00012 -.00006 .00539 3.75 6.7)" spreadMethod="pad" cx="0" cy="0" r="819.2" fx="0" fy="0"><stop offset=".314" stop-color="#fff" stop-opacity=".431"/><stop offset="1" stop-color="#fff" stop-opacity="0"/></radialGradient><path d="M3.8 2.4q.35 0 .6 1.3l.25 3.1-.3 3.05-.2.65-.05.1-.4.5q-.25-.05-.4-.6l-.05-.1-.15-.6q-.25-1.35-.25-3.15l.3-3.1Q3.4 2.3 3.8 2.4" fill="url(#b)"/><radialGradient id="c" gradientUnits="userSpaceOnUse" gradientTransform="matrix(.00316 -.00119 .00143 .00815 6.8 8.9)" spreadMethod="pad" cx="0" cy="0" r="819.2" fx="0" fy="0"><stop offset=".337" stop-color="#f9c29f"/><stop offset="1" stop-color="#fedec1" stop-opacity="0"/></radialGradient><path d="M10.25 9.85q.1 1.35-1.65 2.65-.55.4-.85 2.05v.1l-.1-.2q-.6-2.3-.8-4.95-.2-2.65-.15-6.75l.1.85-.1-.95Q8.05 7.1 9.35 7.8l.65.5.25 1.55" fill="url(#c)"/><path d="M5.65 15.2l-.45.05-.2.05-.55.5-.35.15h-.4l-.55-.2-.1-.05.4.1.9-.15.5-.35.7-.45.35-.1.95.05.05.1-1.25.3" fill="#823909"/><radialGradient id="d" gradientUnits="userSpaceOnUse" gradientTransform="matrix(.00366 .00012 -.00012 .00366 3.95 17.05)" spreadMethod="pad" cx="0" cy="0" r="819.2" fx="0" fy="0"><stop offset="0" stop-color="#f39b61"/><stop offset="1" stop-color="#f8be98"/></radialGradient><path d="M6.25 11.35l1.4.15-.15-.9.05.1.35 1.5.3 1.4.05.2q0 .6-.4 1l-1.2.65-.95.35-1 .7-1.6.15q-1.25-.8-2.45-1.2l-.25-.2-.05-.05q-.7-.7.1-1.5l.1-.1h.1q.6-.25 1.5.3.85.55 1.5.5l1.8-.6q1.05-.6.95-1.5l-.15-.95m.65 3.55l-.05-.1-.95-.05-.35.1-.7.45-.5.35-.9.15-.4-.1.1.05.55.2h.4l.35-.15.55-.5.2-.05.45-.05 1.25-.3m-6.2.05q.7.5 1.2.4l.45.1.2.05.35.2.1.05-.05-.05-.95-.75-.3-.1q-.75-.35-1 0v.1" fill="url(#d)"/><radialGradient id="e" gradientUnits="userSpaceOnUse" gradientTransform="matrix(.00366 .00012 -.00012 .00366 3.9 17.6)" spreadMethod="pad" cx="0" cy="0" r="819.2" fx="0" fy="0"><stop offset="0" stop-color="#f39b61"/><stop offset="1" stop-color="#f8be98"/></radialGradient><path d="M7.65 11.5l-1.4-.15-.25-1.2.1 1.45-.15-.85q-.25-2.1-.1-4.7L6 3.55 7.95 1.1q-.9 3.55-.7 6.35l.25 2.95v.2l.15.9" fill="url(#e)"/></g></svg>

<?xml version="1.0" encoding="utf-8"?>
<svg version="1.1" id="Layer_1"
xmlns="http://www.w3.org/2000/svg"
xmlns:xlink="http://www.w3.org/1999/xlink"
xmlns:author="http://www.sothink.com"
width="11px" height="16px"
xml:space="preserve">
<g id="441" transform="matrix(1, 0, 0, 1, 0, -1.1)">
<path style="fill:#823909;fill-opacity:1" d="M2,14.95L2.95 15.7L3 15.75L2.9 15.7L2.55 15.5L2.35 15.45L1.9 15.35Q1.4 15.45 0.7 14.95L0.7 14.85Q0.95 14.5 1.7 14.85L2 14.95" />
<radialGradient
id="RadialGradID_3913" gradientUnits="userSpaceOnUse" gradientTransform="matrix(0.00106812, 6.10352e-005, -6.10352e-005, 0.00106812, 3.5, 12.55)" spreadMethod ="pad" cx="0" cy="0" r="819.2" fx="0" fy="0" >
<stop  offset="0.313725"  style="stop-color:#FFFFFF;stop-opacity:0.431373" />
<stop  offset="1"  style="stop-color:#FFFFFF;stop-opacity:0" />
</radialGradient>
<path style="fill:url(#RadialGradID_3913) " d="M4.1,11.95L4.3 12.6L4 13.2L3.4 13.45L2.8 13.1Q2.55 12.85 2.6 12.5Q2.6 12.15 2.85 11.9Q3.1 11.65 3.5 11.7Q3.85 11.7 4.1 11.95" />
<radialGradient
id="RadialGradID_3914" gradientUnits="userSpaceOnUse" gradientTransform="matrix(0.00138855, 0.00012207, -6.10352e-005, 0.00538635, 3.75, 6.7)" spreadMethod ="pad" cx="0" cy="0" r="819.2" fx="0" fy="0" >
<stop  offset="0.313725"  style="stop-color:#FFFFFF;stop-opacity:0.431373" />
<stop  offset="1"  style="stop-color:#FFFFFF;stop-opacity:0" />
</radialGradient>
<path style="fill:url(#RadialGradID_3914) " d="M3.8,2.4Q4.15 2.4 4.4 3.7L4.65 6.8L4.35 9.85L4.15 10.5L4.1 10.6L3.7 11.1Q3.45 11.05 3.3 10.5L3.25 10.4L3.1 9.8Q2.85 8.45 2.85 6.65L3.15 3.55Q3.4 2.3 3.8 2.4" />
<radialGradient
id="RadialGradID_3915" gradientUnits="userSpaceOnUse" gradientTransform="matrix(0.00315857, -0.00119019, 0.00143433, 0.00814819, 6.8, 8.9)" spreadMethod ="pad" cx="0" cy="0" r="819.2" fx="0" fy="0" >
<stop  offset="0.337255"  style="stop-color:#F9C29F;stop-opacity:1" />
<stop  offset="1"  style="stop-color:#FEDEC1;stop-opacity:0" />
</radialGradient>
<path style="fill:url(#RadialGradID_3915) " d="M10.25,9.85Q10.35 11.2 8.6 12.5Q8.05 12.9 7.75 14.55L7.75 14.6L7.75 14.65L7.65 14.45Q7.05 12.15 6.85 9.5Q6.65 6.85 6.7 2.75L6.8 3.6L6.7 2.65Q8.05 7.1 9.35 7.8L10 8.3L10.25 9.85" />
<path style="fill:#823909;fill-opacity:1" d="M5.65,15.2L5.2 15.25L5 15.3L4.45 15.8L4.1 15.95L3.7 15.95L3.15 15.75L3.05 15.7L3.45 15.8L4.35 15.65L4.85 15.3L5.55 14.85L5.9 14.75L6.85 14.8L6.9 14.9L5.65 15.2" />
<radialGradient
id="RadialGradID_3916" gradientUnits="userSpaceOnUse" gradientTransform="matrix(0.00366211, 0.00012207, -0.00012207, 0.00366211, 3.95, 17.05)" spreadMethod ="pad" cx="0" cy="0" r="819.2" fx="0" fy="0" >
<stop  offset="0"  style="stop-color:#F39B61;stop-opacity:1" />
<stop  offset="1"  style="stop-color:#F8BE98;stop-opacity:1" />
</radialGradient>
<path style="fill:url(#RadialGradID_3916) " d="M6.25,11.35L7.65 11.5L7.5 10.6L7.55 10.7L7.9 12.2L8.2 13.6L8.25 13.8Q8.25 14.4 7.85 14.8L6.65 15.45L5.7 15.8L4.7 16.5L3.1 16.65Q1.85 15.85 0.65 15.45L0.4 15.25L0.35 15.2Q-0.35 14.5 0.45 13.7L0.55 13.6L0.65 13.6Q1.25 13.35 2.15 13.9Q3 14.45 3.65 14.4L5.45 13.8Q6.5 13.2 6.4 12.3L6.25 11.35M6.9,14.9L6.85 14.8L5.9 14.75L5.55 14.85L4.85 15.3L4.35 15.65L3.45 15.8L3.05 15.7L3.15 15.75L3.7 15.95L4.1 15.95L4.45 15.8L5 15.3L5.2 15.25L5.65 15.2L6.9 14.9M0.7,14.95Q1.4 15.45 1.9 15.35L2.35 15.45L2.55 15.5L2.9 15.7L3 15.75L2.95 15.7L2 14.95L1.7 14.85Q0.95 14.5 0.7 14.85L0.7 14.95" />
<radialGradient
id="RadialGradID_3917" gradientUnits="userSpaceOnUse" gradientTransform="matrix(0.00366211, 0.00012207, -0.00012207, 0.00366211, 3.9, 17.6)" spreadMethod ="pad" cx="0" cy="0" r="819.2" fx="0" fy="0" >
<stop  offset="0"  style="stop-color:#F39B61;stop-opacity:1" />
<stop  offset="1"  style="stop-color:#F8BE98;stop-opacity:1" />
</radialGradient>
<path style="fill:url(#RadialGradID_3917) " d="M7.65,11.5L6.25 11.35L6 10.15L6.1 11.6L5.95 10.75Q5.7 8.65 5.85 6.05L6 3.55L7.95 1.1Q7.05 4.65 7.25 7.45L7.5 10.4L7.5 10.6L7.65 11.5" />
</g>
</svg>
